PortableApps/LibreOfficePortable/App/libreoffice/help/media/icon-themes/cmd/lc_closedoc.svg

<svg viewBox="0 0 24 24" xmlns="http://www.w3.org/2000/svg"><path d="m5 3v18h14v-14.2705905l-4-3.7294095z" fill="#fff"/><path d="m5 2c-.554 0-1 .446-1 1v18c0 .554.446 1 1 1h14c.554 0 1-.446 1-1v-10.109375-3.6412209-.2079239c0-.4506799.09887-.4265951-.604637-1.0675892l-3.307389-3.2370335c-.709525-.7368575-.711223-.7368575-1.094804-.7368575h-.331557-.661613zm0 1h9v4c0 .554.446 1 1 1h4v13h-14z" fill="#808080"/><path d="m15 7h4l-4-4z" fill="#fff"/><path d="m18 13a5 5 0 0 0 -5 5 5 5 0 0 0 5 5 5 5 0 0 0 5-5 5 5 0 0 0 -5-5z" fill="#e68497"/><path d="m15.494141 14.994141a.50005.50005 0 0 0 -.347657.859375l2.146485 2.146484-2.146485 2.146484a.50005.50005 0 1 0 .707032.707032l2.146484-2.146485 2.146484 2.146485a.50005.50005 0 1 0 .707032-.707032l-2.146485-2.146484 2.146485-2.146484a.50005.50005 0 0 0 -.363282-.857422.50005.50005 0 0 0 -.34375.15039l-2.146484 2.146485-2.146484-2.146485a.50005.50005 0 0 0 -.359375-.152343z" fill="#fff"/></svg>

<svg viewBox="0 0 24 24" xmlns="http://www.w3.org/2000/svg">
  <path
     style="fill:#ffffff"
     d="M 5,3 V 21 H 19 V 6.7294095 L 15,3 Z"
     />
  <path
     style="fill:#808080"
     d="M 5,2 C 4.446,2 4,2.446 4,3 v 18 c 0,0.554 0.446,1 1,1 h 14 c 0.554,0 1,-0.446 1,-1 V 10.890625 7.2494041 7.0414802 C 20,6.5908003 20.09887,6.6148851 19.395363,5.973891 L 16.087974,2.7368575 C 15.378449,2 15.376751,2 14.99317,2 H 14.661613 14 Z m 0,1 h 9 v 4 c 0,0.554 0.446,1 1,1 h 4 V 21 H 5 Z"
     />
  <path
     style="fill:#ffffff"
     d="m 15,7 h 4 L 15,3 Z"
     />
  <path
     style="fill:#e68497"
     d="m 18,13 a 5,5 0 0 0 -5,5 5,5 0 0 0 5,5 5,5 0 0 0 5,-5 5,5 0 0 0 -5,-5 z"
     />
  <path
     style="fill:#ffffff"
     d="m 15.494141,14.994141 a 0.50005,0.50005 0 0 0 -0.347657,0.859375 L 17.292969,18 15.146484,20.146484 a 0.50005,0.50005 0 1 0 0.707032,0.707032 L 18,18.707031 l 2.146484,2.146485 a 0.50005,0.50005 0 1 0 0.707032,-0.707032 L 18.707031,18 20.853516,15.853516 a 0.50005,0.50005 0 0 0 -0.363282,-0.857422 0.50005,0.50005 0 0 0 -0.34375,0.15039 L 18,17.292969 15.853516,15.146484 a 0.50005,0.50005 0 0 0 -0.359375,-0.152343 z"
     />
</svg>
